X: 6
T: Miss McLeod's
R: reel
M: 4/4
L: 1/8
K: Gmaj
G2BG DGBG|B2BA BcBA|G2BG DGBG|A2AG AcBA|G2BG DGBG|B2BA B2d2|efed Bdef|gedB AcBA:|G2gf efge|B2BA BcBA|G2gf efge|a2ab agef|~g3f efge|B2BA B2d2|efed Bdef|gedB AcBA:|


Tune 75	Setting 12555

